Papirus/16x16/apps/musescore.svg

<svg width="16" height="16" version="1.1" xmlns="http://www.w3.org/2000/svg">
 <rect width="16" height="16" rx="3.9768786" style="fill:#4242ac"/>
 <path d="M 7.7712055,7 6,9 H 8.2287954 L 10,7 Z" style="fill:#0ae1ee"/>
 <path d="m8.2343749 2c-2.3392062 0-4.234375 1.7346614-4.234375 3.875 0 0.3911088 0.063874 0.7690699 0.1816406 1.125h2.8183594c-0.521698-0.471987-0.7226562-1.1429356-0.7226562-1.8867188 0-1.4289972 1.203814-2.5878906 2.6875-2.5878906 0.6104815 0 1.1737933 0.1968972 1.6250003 0.5273438-0.01829-1.288e-4 -0.03834 0-0.05664 0-0.0013-3e-7 -0.0026-3e-6 -0.0039 0-0.0013-1.7e-6 -0.0026-1.7e-6 -0.0039 0-0.0026-6.9e-6 -0.0052-6.9e-6 -0.0078 0-0.0532 5.481e-4 -0.104643 0.00371-0.15625 0.00977-0.03073 0.00359-0.06135 0.00815-0.0918 0.013672-0.01383 0.00252-0.02734 0.00686-0.04101 0.00977-0.03742 0.00702-0.07456 0.015492-0.111328 0.025391-0.6298696 0.1821199-1.0636778 0.7584079-1.0644817 1.4140532-4.047e-4 0.8138094 0.6588474 1.4739356 1.4726567 1.4746094 0.814572 4.047e-4 1.475014-0.6600376 1.474609-1.4746094-2.96e-4 -0.3923991-0.172903-0.7533817-0.435547-1.0449218-1.060249-1.1768996-2.0341416-1.4804688-3.3300781-1.4804688z" style="fill:#0ae1ee"/>
 <path d="m7.7656254 14c2.3392066 0 4.2343746-1.734661 4.2343746-3.875 0-0.3911088-0.063873-0.7690699-0.18164-1.125h-2.8183596c0.521698 0.471987 0.7226562 1.142936 0.7226562 1.886719 0 1.428997-1.203814 2.58789-2.6875 2.58789-0.6104815 0-1.1737933-0.196897-1.6250003-0.527343 0.01829 1.28e-4 0.03834 0 0.05664 0 0.0013 0 0.0026 3e-6 0.0039 0 0.0013 1e-6 0.0026 1e-6 0.0039 0 0.0026 7e-6 0.0052 7e-6 0.0078 0 0.0532-5.48e-4 0.104643-0.0037 0.15625-0.0098 0.03073-0.0036 0.06135-0.0081 0.0918-0.01367 0.01383-0.0025 0.02734-0.0069 0.04101-0.0098 0.03742-7e-3 0.07456-0.01549 0.111328-0.02539 0.6298696-0.18212 1.0636778-0.758408 1.0644817-1.414054 4.047e-4 -0.813752-0.6588474-1.473878-1.4726567-1.474552-0.814572-4.047e-4 -1.475014 0.660038-1.474609 1.474609 2.96e-4 0.3924 0.172903 0.753382 0.435547 1.044922 1.060249 1.1769 2.0341416 1.480469 3.3300781 1.480469z" style="fill:#0ae1ee"/>
</svg>

<?xml version="1.0" encoding="UTF-8" standalone="no"?>
<svg
   width="16"
   height="16"
   version="1.1"
   id="svg3"
   sodipodi:docname="musescore.svg"
   inkscape:version="1.4.3 (0d15f75042, 2025-12-25)"
   xmlns:inkscape="http://www.inkscape.org/namespaces/inkscape"
   xmlns:sodipodi="http://sodipodi.sourceforge.net/DTD/sodipodi-0.dtd"
   xmlns="http://www.w3.org/2000/svg"
   xmlns:svg="http://www.w3.org/2000/svg">
  <defs
     id="defs3" />
  <sodipodi:namedview
     id="namedview3"
     pagecolor="#ffffff"
     bordercolor="#000000"
     borderopacity="0.25"
     inkscape:showpageshadow="2"
     inkscape:pageopacity="0.0"
     inkscape:pagecheckerboard="0"
     inkscape:deskcolor="#d1d1d1"
     showgrid="true"
     inkscape:zoom="45.254834"
     inkscape:cx="5.2701552"
     inkscape:cy="7.8002717"
     inkscape:window-width="2560"
     inkscape:window-height="1011"
     inkscape:window-x="0"
     inkscape:window-y="0"
     inkscape:window-maximized="1"
     inkscape:current-layer="svg3">
    <inkscape:grid
       id="grid3"
       units="px"
       originx="0"
       originy="0"
       spacingx="1"
       spacingy="1"
       empcolor="#0099e5"
       empopacity="0.30196078"
       color="#0099e5"
       opacity="0.14901961"
       empspacing="5"
       enabled="true"
       visible="true" />
  </sodipodi:namedview>
  <rect
     x="0"
     y="0"
     width="16"
     height="16"
     rx="3.9768786"
     style="fill:#4242ac;fill-opacity:1;stroke-width:0.285714"
     id="rect2-7" />
  <path
     style="fill:#0ae1ee;fill-opacity:1;stroke:none;stroke-width:0.90636;stroke-linecap:square;stroke-linejoin:bevel"
     d="M 7.7712055,7 6,9 H 8.2287954 L 10,7 Z"
     id="path3"
     sodipodi:nodetypes="ccccc" />
  <path
     id="path8"
     style="fill:#0ae1ee;fill-opacity:1;stroke:none;stroke-width:0.94336;stroke-linecap:square;stroke-linejoin:bevel"
     d="m 8.2343749,2 c -2.3392062,0 -4.234375,1.7346614 -4.234375,3.875 0,0.3911088 0.063874,0.7690699 0.1816406,1.125 H 6.9999999 C 6.4783019,6.528013 6.2773437,5.8570644 6.2773437,5.1132812 c 0,-1.4289972 1.203814,-2.5878906 2.6875,-2.5878906 0.6104815,0 1.1737933,0.1968972 1.6250003,0.5273438 -0.01829,-1.288e-4 -0.03834,0 -0.05664,0 -0.0013,-3e-7 -0.0026,-3e-6 -0.0039,0 -0.0013,-1.7e-6 -0.0026,-1.7e-6 -0.0039,0 -0.0026,-6.9e-6 -0.0052,-6.9e-6 -0.0078,0 -0.0532,5.481e-4 -0.104643,0.00371 -0.15625,0.00977 -0.03073,0.00359 -0.06135,0.00815 -0.0918,0.013672 -0.01383,0.00252 -0.02734,0.00686 -0.04101,0.00977 -0.03742,0.00702 -0.07456,0.015492 -0.111328,0.025391 C 9.4873464,3.2934573 9.0535382,3.8697453 9.0527343,4.5253906 9.0523296,5.3392 9.7115817,5.9993262 10.525391,6 11.339963,6.0004047 12.000405,5.3399624 12,4.5253906 11.999704,4.1329915 11.827097,3.7720089 11.564453,3.4804688 10.504204,2.3035692 9.5303114,2 8.2343749,2 Z"
     sodipodi:nodetypes="ssccsscsccccccccccss" />
  <path
     id="path8-0"
     style="fill:#0ae1ee;fill-opacity:1;stroke:none;stroke-width:0.94336;stroke-linecap:square;stroke-linejoin:bevel"
     d="M 7.7656254,14 C 10.104832,14 12,12.265339 12,10.125 12,9.7338912 11.936127,9.3559301 11.81836,9 H 9.0000004 c 0.521698,0.471987 0.7226562,1.142936 0.7226562,1.886719 0,1.428997 -1.203814,2.58789 -2.6875,2.58789 -0.6104815,0 -1.1737933,-0.196897 -1.6250003,-0.527343 0.01829,1.28e-4 0.03834,0 0.05664,0 0.0013,0 0.0026,3e-6 0.0039,0 0.0013,10e-7 0.0026,10e-7 0.0039,0 0.0026,7e-6 0.0052,7e-6 0.0078,0 0.0532,-5.48e-4 0.104643,-0.0037 0.15625,-0.0098 0.03073,-0.0036 0.06135,-0.0081 0.0918,-0.01367 0.01383,-0.0025 0.02734,-0.0069 0.04101,-0.0098 0.03742,-0.007 0.07456,-0.01549 0.111328,-0.02539 C 6.5126539,12.706486 6.9464621,12.130198 6.947266,11.474552 6.9476707,10.6608 6.2884186,10.000674 5.4746093,10 c -0.814572,-4.047e-4 -1.475014,0.660038 -1.474609,1.474609 2.96e-4,0.3924 0.172903,0.753382 0.435547,1.044922 C 5.4957963,13.696431 6.4696889,14 7.7656254,14 Z"
     sodipodi:nodetypes="ssccsscsccccccccccss" />
</svg>
